src/assets/icons/phone.svg

<svg width="22" height="22" viewBox="0 0 22 22" fill="none" xmlns="http://www.w3.org/2000/svg">
<path fill-rule="evenodd" clip-rule="evenodd" d="M11.0001 8.80031V11.0004H13.2001C13.2001 9.78485 12.2156 8.80031 11.0001 8.80031ZM11.0001 4.40016V6.60023C13.4267 6.60023 15.4001 8.5737 15.4001 11.0004H17.6C17.6 7.35486 14.6455 4.40016 11.0001 4.40016ZM11.0001 0V2.20008C15.8522 2.20008 19.8 6.14812 19.8 11.0004H22C22 4.92487 17.0753 0 11.0001 0ZM16.1173 20.058C16.1041 20.0976 16.1052 20.0921 16.1173 20.058V20.058ZM15.5288 17.1365C14.7643 16.7251 13.991 16.2563 13.1913 15.9296C11.6458 15.2993 11.7503 17.1627 10.647 17.7666C9.92981 18.1593 8.91782 17.4476 8.29192 17.0538C7.19853 16.3652 6.22944 15.459 5.42424 14.4106C5.01175 13.8749 4.10096 12.8673 4.21316 12.116C4.39135 10.9236 5.80154 10.8638 5.39784 9.40512C5.18224 8.62409 4.79615 7.85541 4.50685 7.10299C4.11965 6.09425 3.96015 5.44842 2.83046 5.50342C2.01427 5.54302 1.47308 5.892 0.971485 6.54652C-0.385904 8.31428 -0.181307 10.6976 0.730585 12.637C2.02197 15.3816 4.23515 17.9691 6.59903 19.6412C8.20722 20.7786 10.3258 21.8114 12.2728 21.9863C13.6984 22.115 15.6927 21.3442 16.2031 19.7964C16.1679 19.9042 16.1338 20.0085 16.1173 20.058C16.1294 20.0195 16.1558 19.9416 16.2031 19.7964C16.2548 19.6402 16.28 19.562 16.2921 19.5268C16.2767 19.573 16.2416 19.681 16.2042 19.7932C16.653 18.4291 16.7079 17.7713 15.5288 17.1365ZM16.2921 19.5268C16.3009 19.4982 16.3009 19.5004 16.2921 19.5268V19.5268Z" fill="white"/>
</svg>

<svg xmlns="http://www.w3.org/2000/svg" width="22" height="22" fill="none"><path fill="#fff" fill-rule="evenodd" d="M11 8.8V11h2.2A2.2 2.2 0 0 0 11 8.8Zm0-4.4v2.2c2.427 0 4.4 1.974 4.4 4.4h2.2A6.6 6.6 0 0 0 11 4.4ZM11 0v2.2c4.852 0 8.8 3.948 8.8 8.8H22c0-6.075-4.925-11-11-11Zm5.117 20.058c-.013.04-.012.034 0 0Zm-.588-2.921c-.765-.412-1.538-.88-2.338-1.207-1.545-.63-1.44 1.233-2.544 1.837-.717.392-1.73-.32-2.355-.713a11.11 11.11 0 0 1-2.868-2.643c-.412-.536-1.323-1.544-1.21-2.295.177-1.192 1.588-1.252 1.184-2.71-.216-.782-.602-1.55-.891-2.303-.387-1.009-.547-1.655-1.677-1.6-.816.04-1.357.389-1.859 1.044-1.357 1.767-1.152 4.15-.24 6.09 1.291 2.745 3.504 5.332 5.868 7.004 1.608 1.138 3.727 2.17 5.674 2.345 1.425.129 3.42-.642 3.93-2.19l-.086.262.086-.262.09-.27-.089.267c.449-1.364.504-2.022-.675-2.656Zm.763 2.39c.009-.029.009-.027 0 0Z" clip-rule="evenodd"/></svg>
